X:760
T:Happy to meet and sorry to part
R:jig
M:6/8
L:1/8
K:G
f|edB BAB|GEF G2A|Bde dBA|Bef gfe|edB BAB|GEF G2A|
Bde dBA|BGF G2::f|gfg fed|Bee e2f|gfg fed|
Bed e2f|gfg fed|Bee e2f|gfg aga|bgf g2:|]
